X:1
T:Sportin' Bachelors
M:4/4
L:1/8
K:C
 z4 z2 z E| A,B, CD E2 CE| DC A, G, A,3 E| AA AA G2 ED| E6 z E| EE EE A2 CB,|\
 A,2 B,C D2 GF| E2 CED-C A, G,| A,2 C2 D2 GF| E2 CED-C A, G,| A,6- A, z|\


